assets/icons/qvision/pin_drop.svg

<svg xmlns="http://www.w3.org/2000/svg" height="24" viewBox="0 0 24 24" width="24"><path d="M0 0h24v24H0z" fill="none"/><path d="M18 8c0-3.31-2.69-6-6-6S6 4.69 6 8c0 4.5 6 11 6 11s6-6.5 6-11zm-8 0c0-1.1.9-2 2-2s2 .9 2 2-.89 2-2 2c-1.1 0-2-.9-2-2zM5 20v2h14v-2H5z"/></svg>

<svg width="24" height="24" viewBox="0 0 24 24" fill="none" xmlns="http://www.w3.org/2000/svg">
<g clip-path="url(#clip0_147_5586)">
<path d="M18 8C18 4.69 15.31 2 12 2C8.69 2 6 4.69 6 8C6 12.5 12 19 12 19C12 19 18 12.5 18 8ZM10 8C10 6.9 10.9 6 12 6C13.1 6 14 6.9 14 8C14 9.1 13.11 10 12 10C10.9 10 10 9.1 10 8ZM5 20V22H19V20H5Z" fill="#323232"/>
</g>
<defs>
<clipPath id="clip0_147_5586">
<rect width="24" height="24" fill="white"/>
</clipPath>
</defs>
</svg>
